X: 39
T: POLKA PIQUEE
M: 6/8
L: 1/8
Q:1/4=170
K:G
|Bdd c/2B/2Ac|BGB ddc/2B/2|AAG3/2 z/2 Bd|dc/2B/2A cBG|
Bdd c/2B/2AA|G3/2 z/2 B5/2 z/2 |d5/2 z/2 cBA|B3/2 z/2 G B5/2 z/2 |
d5/2 z/2 cBA|G5/2 z/2 B5/2 z/2 |d5/2 z/2 cBA|B3/2 z/2 G B5/2 z/2 |
d5/2 z/2 cBA|G5/2|
